src/components/profile_avatars/profile-male-2.svg

<svg xmlns="http://www.w3.org/2000/svg" width="528" height="528" fill="none" viewBox="0 0 528 528"><g clip-path="url(#a)"><ellipse cx="265.5" cy="278.5" fill="#20acda" rx="257.5" ry="254.5"/><path fill="#fff" d="M479.197 892.15c25.388 293.31 54.508 525.53-96.395 538.59S118.238 1196.41 92.8499 903.093C63.162 550.554 95.4259 471.672 224.712 420.885c39.538-68.496 203.48 45.399 236.267 144.595 72.798 220.254 5.139 175.576 18.218 326.67"/><path fill="#fed09f" d="M196.986 424.582c8.805-39.22-11.739-95.198 0-168.57 52.828-38.153 166.486-4.801 166.486 44.505 0 49.305 0 66.435 20.811 95.25-5.87 26.414-60.031 168.565-95.25 189.696-44.022 26.413-99.761-126.518-92.047-160.881"/><path fill="#fff" d="m261.018 513.428 28.911-30.079c14.524 0 48.676 44.234 63.937 66.35l-15.208 56.577-90.564 8.004-65.516-38.041v-88.467l50.426-8.762z"/><path fill="#efaf85" d="M261.783 402.916c-29.657.617-57.667-19.839-64.07-31.045l-1.321-19.155c7.203-2.401 29.729 7.673 59.824 13.436 30.096 5.763 83.681-57.928 106.626-74.203v17.609c-.801 10.405-14.195 34.123-22.458 45.14-9.605 12.806-46.896 47.557-78.601 48.218"/><path fill="#74a7e6" d="m206.855 846.979 34.766-316.466c.267-2.435 2.324-4.278 4.774-4.278h27.77c2.419 0 4.46 1.799 4.764 4.199l40.894 323.002c.256 2.02-.789 3.981-2.608 4.895l-62.466 31.397c-1.79.899-3.95.593-5.42-.768l-40.963-37.933c-1.117-1.034-1.677-2.536-1.511-4.048"/><path fill="#fed09f" d="M165.348 313.083c-7.54-14.705-18.788-64.323-21.99-91.804C126.55 61.1965 286.633 91.6122 325.052 94.0135c30.736 1.921 40.021 72.3045 40.822 107.2555 2.134 12.807 3.201 32.334 3.201 52.825 0 25.613-4.554 38.178-14.159 58.989-9.605 20.81-47.473 55.47-69.084 64.275-24.674 10.052-35.363 9.501-53.772 3.097-18.41-6.403-47.84-30.566-66.712-67.372"/><rect width="70.4364" height="105.655" x="352.362" y="159.946" fill="#fed09f" rx="35.2182" transform="rotate(19.0666 352.362 159.946)"/><rect width="55.5976" height="90.0386" fill="#fed09f" rx="27.7988" transform="rotate(166.29971 76.11172136 98.39046941)scale(1 -1)"/><path fill="#121212" d="M156.965 147.639c-7.204 8.804-8.004 12.006-8.004 34.418 0 12.342-1.991 31.963-3.202 40.821.801 2.401-.215.8-3.201.8-5.603-11.206-11.459-15.208-16.009-72.838-2.401-30.415.801-51.226 3.202-63.2322 5.603-15.2079 10.11-25.9881 29.615-44.5221C175.374 27.8741 197.841 4.023 242.609.663985 306.642-4.14044 333.879 17.9774 337.058 39.5829c7.204-1.6009 17.609 3.202 33.618 11.2059 15.486 7.743 24.012 35.3902 24.012 63.2322 0 26.414 4.802 29.116 0 50.728-4.447 20.01-6.67 5.302-9.605 14.107-.552 4.276-6.403 20.81-6.403 31.215 0 2.401-1.601 2.401-8.004 4.002-2.33.583-9.605 3.202-9.605.801-1.336-5.472-5.256-39.308-6.404-45.623-3.201-17.61-12.029-20.314-16.832-25.116-12.452-12.451-4.711-23.212-16.008-33.618-3.475-3.201 2.425 4.305-36.796 23.515-17.68 8.66-83.243 16.506-102.453 10.103-12.006-4.002-22.225-.638-25.613 3.504"/><path fill="#fdfcf5" d="M247.912 314.406c14.071-.528 31.894-2.144 39.963-5.442.729-.298 1.65.51 1.384 1.252-3.555 9.912-8.827 28.918-39.192 30.835-31.302 1.977-36.983-18.224-38.859-28.336-.122-.656.582-1.167 1.2-.915 7.199 2.938 20.943 3.153 35.504 2.606"/><path fill="#c5c8cf" d="M262.62 510.892c38.42 11.34 47.225 16.143 57.63 23.347-11.526-28.681-28.015-44.608-44.823-51.227z"/><path fill="#c5c8cf" d="M270.623 510.226c-35.218 5.954-44.823 13.607-56.829 27.214 11.526-30.958 18.409-48.084 35.218-55.228z"/><path fill="#74a7e6" d="M260.858 483.378c15.009 0 26.862 3.946 32.075 6.029 1.779.712 2.816 2.487 2.669 4.398-.406 5.261-1.418 15.933-3.334 22.639-1.21 4.236-2.979 9.729-4.533 14.416-1.989 5.999-7.387 10.19-13.7 10.474-3.835.173-8.416.313-13.177.313-6.917 0-13.69-.91-18.322-1.712-3.875-.672-7.243-2.984-9.06-6.472-2.212-4.244-4.991-10.645-6.1-17.672-1.418-8.98-1.181-19.59-.939-24.81.091-1.956 1.414-3.61 3.315-4.076 5.184-1.271 16.453-3.528 31.106-3.527"/><path fill="#fff" d="M323.451 546.245c-10.548-29.173-29.831-51.74-48.025-63.233 0 0 37.348-11.636 73.738-55.838 33.646-40.869 26.2-46.698 24.886-47.344-.058-.024-.115-.048-.173-.071 0 0 .066.018.173.071 52.672 21.551 60.64 26.389 43.849 68.764-35.837 90.447-72.298 70.54-94.448 97.651M212.994 537.44c10.459-29.055 15.624-39.38 36.019-55.228 0 0-40.021-20.811-43.223-44.823-3.201-24.013-7.203-33.618-7.203-33.618-32.817 28.815-42.422 32.017-36.019 76.04 6.019 41.378 28.462 30.628 50.426 57.629"/><path fill="#1e1e1e" d="M332.873 877.616c-48.825 13.439-25.522 27.234-25.522-18.41 0-49.626 19.684-181.291 52.119-286.547 20.718-67.235 48.334-128.836 52.827-163.285 0-16.008-20.065-20.146-24.812-24.813 28.814 6.404 60.114 31.217 136.953 60.832 100.853 44.823 103.766 110.829 109.574 156.08 8.013 62.433 18.73 99.571-8.805 177.692-27.534 78.12-186.679 69.369-292.334 98.451M180.977 843.198c7.204 35.219 42.142 31.076 40.021 6.404-15.208-176.892-54.661-318.467-55.229-387.401-.093-11.292 4.803-34.417 22.412-49.625-7.204 0-32.017 24.813-104.8545 54.428C-48.7418 528.636-31.9331 579.062-43.1389 647.097c-10.9374 66.406 0 58.43 0 134.47 0 81.779 129.4009 32.607 224.1159 61.631"/></g><defs><clipPath id="a"><path fill="#fff" d="M0 264C0 118.197 118.197 0 264 0s264 118.197 264 264-118.197 264-264 264S0 409.803 0 264"/></clipPath></defs></svg>

<svg width="528" height="528" viewBox="0 0 528 528" fill="none" xmlns="http://www.w3.org/2000/svg">
<g clip-path="url(#clip0_15658_178132)">
<ellipse cx="265.5" cy="278.5" rx="257.5" ry="254.5" fill="#20ACDA"/>
<path d="M479.197 892.15C504.585 1185.46 533.705 1417.68 382.802 1430.74C231.899 1443.8 118.238 1196.41 92.8499 903.093C63.162 550.554 95.4259 471.672 224.712 420.885C264.25 352.389 428.192 466.284 460.979 565.48C533.777 785.734 466.118 741.056 479.197 892.15Z" fill="white"/>
<path d="M196.986 424.582C205.791 385.362 185.247 329.384 196.986 256.012C249.814 217.859 363.472 251.211 363.472 300.517C363.472 349.822 363.472 366.952 384.283 395.767C378.413 422.181 324.252 564.332 289.033 585.463C245.011 611.876 189.272 458.945 196.986 424.582Z" fill="#FED09F"/>
<path d="M261.018 513.428L289.929 483.349C304.453 483.349 338.605 527.583 353.866 549.699L338.658 606.276L248.094 614.28L182.578 576.239V487.772L233.004 479.01L261.018 513.428Z" fill="white"/>
<path d="M261.783 402.916C232.126 403.533 204.116 383.077 197.713 371.871L196.392 352.716C203.595 350.315 226.121 360.389 256.216 366.152C286.312 371.915 339.897 308.224 362.842 291.949V309.558C362.041 319.963 348.647 343.681 340.384 354.698C330.779 367.504 293.488 402.255 261.783 402.916Z" fill="#EFAF85"/>
<path d="M206.855 846.979L241.621 530.513C241.888 528.078 243.945 526.235 246.395 526.235H274.165C276.584 526.235 278.625 528.034 278.929 530.434L319.823 853.436C320.079 855.456 319.034 857.417 317.215 858.331L254.749 889.728C252.959 890.627 250.799 890.321 249.329 888.96L208.366 851.027C207.249 849.993 206.689 848.491 206.855 846.979Z" fill="#74A7E6"/>
<path d="M165.348 313.083C157.808 298.378 146.56 248.76 143.358 221.279C126.55 61.1965 286.633 91.6122 325.052 94.0135C355.788 95.9345 365.073 166.318 365.874 201.269C368.008 214.076 369.075 233.603 369.075 254.094C369.075 279.707 364.521 292.272 354.916 313.083C345.311 333.893 307.443 368.553 285.832 377.358C261.158 387.41 250.469 386.859 232.06 380.455C213.65 374.052 184.22 349.889 165.348 313.083Z" fill="#FED09F"/>
<rect x="352.362" y="159.946" width="70.4364" height="105.655" rx="35.2182" transform="rotate(19.0666 352.362 159.946)" fill="#FED09F"/>
<rect width="55.5976" height="90.0386" rx="27.7988" transform="matrix(-0.971548 0.236843 0.236843 0.971548 173.361 175.955)" fill="#FED09F"/>
<path d="M156.965 147.639C149.761 156.443 148.961 159.645 148.961 182.057C148.961 194.399 146.97 214.02 145.759 222.878C146.56 225.279 145.544 223.678 142.558 223.678C136.955 212.472 131.099 208.47 126.549 150.84C124.148 120.425 127.35 99.614 129.751 87.6078C135.354 72.3999 139.861 61.6197 159.366 43.0857C175.374 27.8741 197.841 4.023 242.609 0.663985C306.642 -4.14044 333.879 17.9774 337.058 39.5829C344.262 37.982 354.667 42.7849 370.676 50.7888C386.162 58.5318 394.688 86.179 394.688 114.021C394.688 140.435 399.49 143.137 394.688 164.749C390.241 184.759 388.018 170.051 385.083 178.856C384.531 183.132 378.68 199.666 378.68 210.071C378.68 212.472 377.079 212.472 370.676 214.073C368.346 214.656 361.071 217.275 361.071 214.874C359.735 209.402 355.815 175.566 354.667 169.251C351.466 151.641 342.638 148.937 337.835 144.135C325.383 131.684 333.124 120.923 321.827 110.517C318.352 107.316 324.252 114.822 285.031 134.032C267.351 142.692 201.788 150.538 182.578 144.135C170.572 140.133 160.353 143.497 156.965 147.639Z" fill="#121212"/>
<path d="M247.912 314.406C261.983 313.878 279.806 312.262 287.875 308.964C288.604 308.666 289.525 309.474 289.259 310.216C285.704 320.128 280.432 339.134 250.067 341.051C218.765 343.028 213.084 322.827 211.208 312.715C211.086 312.059 211.79 311.548 212.408 311.8C219.607 314.738 233.351 314.953 247.912 314.406Z" fill="#FDFCF5"/>
<path d="M262.62 510.892C301.04 522.232 309.845 527.035 320.25 534.239C308.724 505.558 292.235 489.631 275.427 483.012L262.62 510.892Z" fill="#C5C8CF"/>
<path d="M270.623 510.226C235.405 516.18 225.8 523.833 213.794 537.44C225.32 506.482 232.203 489.356 249.012 482.212L270.623 510.226Z" fill="#C5C8CF"/>
<path d="M260.858 483.378C275.867 483.378 287.72 487.324 292.933 489.407C294.712 490.119 295.749 491.894 295.602 493.805C295.196 499.066 294.184 509.738 292.268 516.444C291.058 520.68 289.289 526.173 287.735 530.86C285.746 536.859 280.348 541.05 274.035 541.334C270.2 541.507 265.619 541.647 260.858 541.647C253.941 541.647 247.168 540.737 242.536 539.935C238.661 539.263 235.293 536.951 233.476 533.463C231.264 529.219 228.485 522.818 227.376 515.791C225.958 506.811 226.195 496.201 226.437 490.981C226.528 489.025 227.851 487.371 229.752 486.905C234.936 485.634 246.205 483.377 260.858 483.378Z" fill="#74A7E6"/>
<path d="M323.451 546.245C312.903 517.072 293.62 494.505 275.426 483.012C275.426 483.012 312.774 471.376 349.164 427.174C382.81 386.305 375.364 380.476 374.05 379.83C373.992 379.806 373.935 379.782 373.877 379.759C373.877 379.759 373.943 379.777 374.05 379.83C426.722 401.381 434.69 406.219 417.899 448.594C382.062 539.041 345.601 519.134 323.451 546.245Z" fill="white"/>
<path d="M212.994 537.44C223.453 508.385 228.618 498.06 249.013 482.212C249.013 482.212 208.992 461.401 205.79 437.389C202.589 413.376 198.587 403.771 198.587 403.771C165.77 432.586 156.165 435.788 162.568 479.811C168.587 521.189 191.03 510.439 212.994 537.44Z" fill="white"/>
<path d="M332.873 877.616C284.048 891.055 307.351 904.85 307.351 859.206C307.351 809.58 327.035 677.915 359.47 572.659C380.188 505.424 407.804 443.823 412.297 409.374C412.297 393.366 392.232 389.228 387.485 384.561C416.299 390.965 447.599 415.778 524.438 445.393C625.291 490.216 628.204 556.222 634.012 601.473C642.025 663.906 652.742 701.044 625.207 779.165C597.673 857.285 438.528 848.534 332.873 877.616Z" fill="#1E1E1E"/>
<path d="M180.977 843.198C188.181 878.417 223.119 874.274 220.998 849.602C205.79 672.71 166.337 531.135 165.769 462.201C165.676 450.909 170.572 427.784 188.181 412.576C180.977 412.576 156.164 437.389 83.3265 467.004C-48.7418 528.636 -31.9331 579.062 -43.1389 647.097C-54.0763 713.503 -43.1389 705.527 -43.1389 781.567C-43.1389 863.346 86.262 814.174 180.977 843.198Z" fill="#1E1E1E"/>
</g>
<defs>
<clipPath id="clip0_15658_178132">
<path d="M0 264C0 118.197 118.197 0 264 0C409.803 0 528 118.197 528 264C528 409.803 409.803 528 264 528C118.197 528 0 409.803 0 264Z" fill="white"/>
</clipPath>
</defs>
</svg>
